Origami/24x24/apps/electron.svg

<svg width="24" height="24" version="1.1" viewBox="0 0 24 24" xmlns="http://www.w3.org/2000/svg">
 <path d="m12 2.5a10 10 0 0 0 -10 10 10 10 0 0 0 10 10 10 10 0 0 0 10 -10 10 10 0 0 0 -10 -10z" style="opacity:.2"/>
 <path d="M 12,2 A 10,10 0 0 0 2,12 10,10 0 0 0 12,22 10,10 0 0 0 22,12 10,10 0 0 0 12,2 Z" style="fill:#74bfcc"/>
 <path d="M 12.429688 4.0019531 A 1.5 1.5 0 0 0 11.201172 4.75 A 1.5 1.5 0 0 0 11.75 6.7988281 A 1.5 1.5 0 0 0 13.798828 6.25 A 1.5 1.5 0 0 0 13.25 4.2011719 A 1.5 1.5 0 0 0 12.429688 4.0019531 z M 18.464844 13 A 1.5 1.5 0 0 0 17.75 13.201172 A 1.5 1.5 0 0 0 17.201172 15.25 A 1.5 1.5 0 0 0 19.25 15.798828 A 1.5 1.5 0 0 0 19.798828 13.75 A 1.5 1.5 0 0 0 18.464844 13 z M 6.5 14 A 1.5 1.5 0 0 0 5 15.5 A 1.5 1.5 0 0 0 6.5 17 A 1.5 1.5 0 0 0 8 15.5 A 1.5 1.5 0 0 0 6.5 14 z" style="fill:#3f3f3f"/>
 <path d="M 12,2 A 10,10 0 0 0 2.0705,10.926 10,9.5 0 0 1 12,2.5 10,9.5 0 0 1 21.961,11.2235 10,10 0 0 0 12,2 Z m 9.961,9.2235 A 10,10 0 0 1 22,12 10,9.5 0 0 0 21.961,11.2235 Z M 2.0705,10.926 A 10,9.5 0 0 0 2.0461,11.122 10,10 0 0 1 2.0705,10.926 Z M 2.0461,11.122 A 10,10 0 0 0 2.0002,12 10,9.5 0 0 1 2.0461,11.122 Z" style="fill:#ffffff;opacity:.2"/>
 <path d="m17.507 11.5s1.632558-1.386987 0.80125-3.1221275c-0.831307-1.7351405-5.294278-0.7089585-8.39609 1.4574485-2.23302 1.559613-3.450547 3.873224-3.411306 5.6575" style="fill:none;stroke-linecap:round;stroke-width:1.0001185;stroke:#3f3f3f"/>
 <path d="m9.5 16.5s0.510392 2.435134 2.775342 2.525c2.264949 0.08987 3.510916-3.959056 3.185658-7.728507-0.234154-2.7136585-1.878994-4.924873-3.443843-5.783027" style="fill:none;stroke-linecap:round;stroke-width:1.0001185;stroke:#3f3f3f"/>
 <path d="m9.49975 7.5s-2.614779-1.5084035-3.7835 0.8348195c-1.168721 2.3432235 2.7835705 5.0401365 6.21064 6.6431805 2.467175 1.154045 5.047503 0.448122 6.57311-0.478" style="fill:none;stroke-linecap:round;stroke-width:1.0001185;stroke:#3f3f3f"/>
 <ellipse cx="12" cy="12" rx=".709" ry=".709" style="fill:#3f3f3f;stroke-width:.58299887;stroke:#3f3f3f"/>
 <path d="M 12.5,5.5 A 0.5,0.5 0 0 0 12,6 0.5,0.5 0 0 0 12.5,6.5 0.5,0.5 0 0 0 13,6 0.5,0.5 0 0 0 12.5,5.5 Z m 6,9 A 0.5,0.5 0 0 0 18,15 0.5,0.5 0 0 0 18.5,15.5 0.5,0.5 0 0 0 19,15 0.5,0.5 0 0 0 18.5,14.5 Z m -12,1 A 0.5,0.5 0 0 0 6,16 0.5,0.5 0 0 0 6.5,16.5 0.5,0.5 0 0 0 7,16 0.5,0.5 0 0 0 6.5,15.5 Z" style="opacity:.2"/>
 <path d="m12.5 5a0.5 0.5 0 0 0 -0.5 0.5 0.5 0.5 0 0 0 0.5 0.5 0.5 0.5 0 0 0 0.5 -0.5 0.5 0.5 0 0 0 -0.5 -0.5zm6 9a0.5 0.5 0 0 0 -0.5 0.5 0.5 0.5 0 0 0 0.5 0.5 0.5 0.5 0 0 0 0.5 -0.5 0.5 0.5 0 0 0 -0.5 -0.5zm-12 1a0.5 0.5 0 0 0 -0.5 0.5 0.5 0.5 0 0 0 0.5 0.5 0.5 0.5 0 0 0 0.5 -0.5 0.5 0.5 0 0 0 -0.5 -0.5z" style="fill:#74bfcc"/>
</svg>

<svg xmlns="http://www.w3.org/2000/svg" width="24" height="24" version="1.1" viewBox="0 0 24 24">
 <path style="opacity:0.2" d="m 12,2.5 a 10,10 0 0 0 -10,10 10,10 0 0 0 10,10 10,10 0 0 0 10,-10 10,10 0 0 0 -10,-10 z"/>
 <path style="fill:#74bfcc" d="M 12,2 A 10,10 0 0 0 2,12 10,10 0 0 0 12,22 10,10 0 0 0 22,12 10,10 0 0 0 12,2 Z"/>
 <path style="fill:#3f3f3f" d="M 12.429688 4.0019531 A 1.5 1.5 0 0 0 11.201172 4.75 A 1.5 1.5 0 0 0 11.75 6.7988281 A 1.5 1.5 0 0 0 13.798828 6.25 A 1.5 1.5 0 0 0 13.25 4.2011719 A 1.5 1.5 0 0 0 12.429688 4.0019531 z M 18.464844 13 A 1.5 1.5 0 0 0 17.75 13.201172 A 1.5 1.5 0 0 0 17.201172 15.25 A 1.5 1.5 0 0 0 19.25 15.798828 A 1.5 1.5 0 0 0 19.798828 13.75 A 1.5 1.5 0 0 0 18.464844 13 z M 6.5 14 A 1.5 1.5 0 0 0 5 15.5 A 1.5 1.5 0 0 0 6.5 17 A 1.5 1.5 0 0 0 8 15.5 A 1.5 1.5 0 0 0 6.5 14 z"/>
 <path style="opacity:0.2;fill:#ffffff" d="M 12,2 A 10,10 0 0 0 2.0705,10.926 10,9.5 0 0 1 12,2.5 10,9.5 0 0 1 21.961,11.2235 10,10 0 0 0 12,2 Z m 9.961,9.2235 A 10,10 0 0 1 22,12 10,9.5 0 0 0 21.961,11.2235 Z M 2.0705,10.926 A 10,9.5 0 0 0 2.0461,11.122 10,10 0 0 1 2.0705,10.926 Z M 2.0461,11.122 A 10,10 0 0 0 2.0002,12 10,9.5 0 0 1 2.0461,11.122 Z"/>
 <path style="fill:none;stroke:#3f3f3f;stroke-width:1.00011849;stroke-linecap:round" d="m 17.507,11.5 c 0,0 1.632558,-1.386987 0.80125,-3.1221275 C 17.476943,6.642732 13.013972,7.668914 9.91216,9.835321 c -2.23302,1.559613 -3.450547,3.873224 -3.411306,5.6575"/>
 <path style="fill:none;stroke:#3f3f3f;stroke-width:1.00011849;stroke-linecap:round" d="m 9.5,16.5 c 0,0 0.510392,2.435134 2.775342,2.525 2.264949,0.08987 3.510916,-3.959056 3.185658,-7.728507 C 15.226846,8.5828345 13.582006,6.37162 12.017157,5.513466"/>
 <path style="fill:none;stroke:#3f3f3f;stroke-width:1.00011849;stroke-linecap:round" d="m 9.49975,7.5 c 0,0 -2.614779,-1.5084035 -3.7835,0.8348195 C 4.547529,10.678043 8.4998205,13.374956 11.92689,14.978 14.394065,16.132045 16.974393,15.426122 18.5,14.5"/>
 <ellipse style="fill:#3f3f3f;stroke:#3f3f3f;stroke-width:0.58299887" cx="12" cy="12" rx=".709" ry=".709"/>
 <path style="opacity:0.2" d="M 12.5,5.5 A 0.5,0.5 0 0 0 12,6 0.5,0.5 0 0 0 12.5,6.5 0.5,0.5 0 0 0 13,6 0.5,0.5 0 0 0 12.5,5.5 Z m 6,9 A 0.5,0.5 0 0 0 18,15 0.5,0.5 0 0 0 18.5,15.5 0.5,0.5 0 0 0 19,15 0.5,0.5 0 0 0 18.5,14.5 Z m -12,1 A 0.5,0.5 0 0 0 6,16 0.5,0.5 0 0 0 6.5,16.5 0.5,0.5 0 0 0 7,16 0.5,0.5 0 0 0 6.5,15.5 Z"/>
 <path style="fill:#74bfcc" d="M 12.5 5 A 0.5 0.5 0 0 0 12 5.5 A 0.5 0.5 0 0 0 12.5 6 A 0.5 0.5 0 0 0 13 5.5 A 0.5 0.5 0 0 0 12.5 5 z M 18.5 14 A 0.5 0.5 0 0 0 18 14.5 A 0.5 0.5 0 0 0 18.5 15 A 0.5 0.5 0 0 0 19 14.5 A 0.5 0.5 0 0 0 18.5 14 z M 6.5 15 A 0.5 0.5 0 0 0 6 15.5 A 0.5 0.5 0 0 0 6.5 16 A 0.5 0.5 0 0 0 7 15.5 A 0.5 0.5 0 0 0 6.5 15 z"/>
</svg>
